localPackages/DesignSystem/Sources/DesignSystem/Resources/Assets.xcassets/IconSet/ic-file-pdf.imageset/ic-file-pdf.svg

<svg width="24" height="24" viewBox="0 0 24 24" fill="none" xmlns="http://www.w3.org/2000/svg">
<g id="ic-file-pdf">
<path id="Icon" fill-rule="evenodd" clip-rule="evenodd" d="M19.5 19.5V9H15.75C14.5074 9 13.5 7.99264 13.5 6.75V3H6C5.17157 3 4.5 3.67157 4.5 4.5V19.5C4.5 20.3284 5.17157 21 6 21H18C18.8284 21 19.5 20.3284 19.5 19.5ZM15 3.62132L18.8787 7.5H15.75C15.3358 7.5 15 7.16421 15 6.75V3.62132ZM6 1.5C4.34315 1.5 3 2.84315 3 4.5V19.5C3 21.1569 4.34315 22.5 6 22.5H18C19.6569 22.5 21 21.1569 21 19.5V8.74264C21 7.94699 20.6839 7.18393 20.1213 6.62132L15.8787 2.37868C15.3161 1.81607 14.553 1.5 13.7574 1.5H6ZM11.9119 8.25009C11.5906 8.25011 11.2749 8.33467 10.9967 8.49532C10.7184 8.65596 10.4873 8.88701 10.3267 9.16523C10.166 9.44345 10.0814 9.75906 10.0813 10.0804C10.0813 10.4017 10.1658 10.7173 10.3263 10.9956L11.0585 12.2634L9.37187 15.5642H7.748C7.49747 15.5642 7.24936 15.6135 7.01785 15.7094C6.78637 15.8053 6.57603 15.9458 6.39885 16.123C6.22166 16.3002 6.08113 16.5105 5.98525 16.742C5.88936 16.9735 5.84001 17.2216 5.84001 17.4721C5.84001 19.3915 8.35494 20.1085 9.36804 18.4796L10.2478 17.0642H13.594L14.4722 18.4791C15.4852 20.1079 17.9992 19.3915 18.0001 17.4732C18.0006 17.2228 17.9517 16.9748 17.8562 16.7433C17.7607 16.5117 17.6205 16.3011 17.4434 16.1237C17.2664 15.9463 17.0562 15.8056 16.8248 15.7096C16.5933 15.6136 16.3452 15.5642 16.0946 15.5642H14.4684L12.7661 12.2618L13.4969 10.9957C13.6574 10.7175 13.742 10.4018 13.742 10.0806C13.7419 9.75937 13.6574 9.44381 13.4968 9.1656C13.3362 8.88739 13.1053 8.65634 12.8272 8.49564C12.549 8.33495 12.2331 8.25026 11.9119 8.25009ZM12.7808 15.5642L11.9148 13.8841L11.0563 15.5642H12.7808ZM7.748 17.0642H8.48169L8.0943 17.6874C7.87756 18.0359 7.34 17.8818 7.34 17.4721C7.34 17.4186 7.35056 17.3655 7.37107 17.316C7.39157 17.2665 7.42163 17.2215 7.45951 17.1836C7.49738 17.1458 7.54236 17.1157 7.59187 17.0952C7.64135 17.0747 7.6944 17.0642 7.748 17.0642ZM15.7463 17.6874L15.3594 17.0642H16.0946C16.148 17.0642 16.2008 17.0747 16.25 17.0951C16.2992 17.1155 16.344 17.1455 16.3816 17.1832C16.4193 17.2209 16.4491 17.2658 16.4695 17.3151C16.4898 17.3644 16.5002 17.4172 16.5001 17.4705L16.5001 17.4721C16.5001 17.8821 15.963 18.0355 15.7463 17.6874ZM12.1977 10.2459L11.9117 10.7414L11.6256 10.2459C11.5966 10.1957 11.5813 10.1387 11.5813 10.0807C11.5813 10.0226 11.5966 9.96564 11.6256 9.91537C11.6547 9.86511 11.6964 9.82338 11.7466 9.79438C11.7969 9.76537 11.8539 9.75009 11.9119 9.75009C11.9699 9.75012 12.0265 9.76541 12.0767 9.79444C12.127 9.82347 12.1687 9.8652 12.1977 9.91544C12.2267 9.96568 12.242 10.0227 12.242 10.0807C12.242 10.1387 12.2267 10.1957 12.1977 10.2459Z" fill="#0F0F0F"/>
</g>
</svg>

<svg xmlns="http://www.w3.org/2000/svg" width="24" height="24" viewBox="0 0 24 24">
  <g class="ic-file-pdf">
    <path fill-rule="evenodd" d="M19.5 19.5V9h-3.75a2.25 2.25 0 0 1-2.25-2.25V3H6a1.5 1.5 0 0 0-1.5 1.5v15A1.5 1.5 0 0 0 6 21h12a1.5 1.5 0 0 0 1.5-1.5ZM15 3.621 18.879 7.5H15.75a.75.75 0 0 1-.75-.75V3.621ZM6 1.5a3 3 0 0 0-3 3v15a3 3 0 0 0 3 3h12a3 3 0 0 0 3-3V8.743a3 3 0 0 0-.879-2.122L15.88 2.38a3 3 0 0 0-2.122-.879H6Zm5.912 6.75a1.83 1.83 0 0 0-1.586 2.746l.732 1.267-1.686 3.301H7.748a1.908 1.908 0 0 0-1.908 1.908c0 1.92 2.515 2.636 3.528 1.008l.88-1.416h3.346l.878 1.415c1.013 1.629 3.527.913 3.528-1.006a1.904 1.904 0 0 0-1.905-1.909h-1.627l-1.702-3.302.73-1.266a1.832 1.832 0 0 0-1.584-2.746Zm.869 7.314-.866-1.68-.859 1.68h1.725Zm-5.033 1.5h.734l-.388.623a.408.408 0 1 1-.346-.623Zm7.998.623-.387-.623h.736a.406.406 0 0 1 .405.407v.001c0 .41-.537.563-.754.215Zm-3.548-7.441-.286.495-.286-.495a.33.33 0 1 1 .572 0Z" class="Icon"/>
  </g>
</svg>
